X: 20261
M: 3/8
L: 1/16
K: G
(de)(de)d2 | (g2G2)B2 | (de)(de)d2 | (g2G2)B2 |\
(GABc^cd) | =c4A2 | B4G2 | F2d2 (Bc) |\
(de)(de)d2 | (g2G2B2) | (de)(de)d2 |(g2G2B2) |
(c4e2) | (A4a2) | g(fedef) | g4 ::\
(ed^cded) | B4G2 | c2(A2F2) | (GFGAG2) |\
ed^cded | d4[a2e2] | (gfedef) | g4 :|


